public/avatar/hat/236.svg

<svg xmlns:xlink="http://www.w3.org/1999/xlink" height="92.9" width="100.7" xmlns="http://www.w3.org/2000/svg"><use height="28.35" transform="translate(23.55 36.7)" width="29.95" xlink:href="#a"/><defs><path d="M1.4-10.7-.85-5.5l-.5 1.6-.35.6-1.1.2q-.9.2-.95.5v-.1l.25-1 .75-.55.6-.95.55-.85L-.1-8.2l1.15-2.15.35-.35m-.15 1.05-.3 3.6V-4l.1.45-.85.1-.65.3-.1-.55.05-1.4.35-1.35 1.2-2.75.2-.45m.9 6.15q-.25-.35-.25-1.3.25-1.4 1.25-2.7-.9 1.95-.65 2.95.05.25.4.6l.2.65-.95-.2m7.6 3.05L9.7-.4l.15.25.2.45.25.55.1.6.35 1.9-1.25-1.2q.55-1.2.4-1.9l-.3-.6.15-.1M12 3.9l.25-.45.25 1.35-.65-.6v-.05L12 3.9M-9.4 1.2l-.5-.2-.65-.25.2-.1.9-.25.6-.2-.55 1.05V1.2m2.7 1.05v.15q.05-.2.45-.3l.75-.1-.45.7-1.55 2.2.4-1.15.4-1.5m5.6-2.7-.05-.05-.1-.55 1 .85L.2.95l.15.7-.8.1-.65-2.2m5.25-.7q.2.1.2 1.25L4 2.9l-.1.25L3.65 2Q3.5.35 2.8-.35l-.65-.7L3.5-1.1l.65-.05m4.3 5 .45.25.6 2.65.3 2.7L8.45 6.2 7.3 4.4 6.1 2.8l-.65-.9q1.15.45 3 1.95M-4.5 1.95l.3-.45.55-.7q.7-1.05 1.15-1.2L-3.05.85l-.1.7.05.25h-.45l-.85.1-.1.05m-8.1 3.4-.85 2.8-.15.45.05-.9-.1-1.25q-.1-.45.2-.55l.85-.55m1.2 1.4 1.05-1.15q-.8 1.7-.8 2.3-.1 1 .15 1.4l-.05-.05-.15-.2-.25-.8-.4-.9-.1-.15.55-.45m23.15-.45 1.1-.35.5 2.2.35 2.55q-1.2-3.05-2.3-3.9l-.45-.3.8-.2m-19.4-4.6 1.5-1.4 2.6-2.05q.55.3-1.9 3.15-.15.2-.65.2l-1.55.1m12.7-3.8-.1-.15q.5.3 1.4 1.7l1.4 2.25.25.35-1.7-.55q-.2-.1-.45-1.1l-.4-1.6-.4-.9m-13.5 3.95-2.8 3.5-.5-.05.05-.1q.25-.6 2.3-2.5l.7-.65.25-.2m9.7-2.7.1.2.05.2.25 1-.05.8-.1.35H.9l-.3-.55-.2-.9L.3-.7 0-1l-.35-.2h.25l1.25.25.1.1" transform="translate(13.7 10.7)" id="d" fill="#f7ba61" fill-rule="evenodd"/><path d="m-.8-5.45.15.75.35.15h-.5l-.25-.05h-.2L-1.3-5v-.6l.25.1.25.05m-2.05-.9.55.25v.65l.05.4-.05.4-.9-.2-.55-.25v-.6l.05-.4.15-.5v-.2l.1.05.6.4m-1.6-.9.55.35-.4 1.4-.05.25-.05.1h-.4l-.65-.1-.2-.1.9-1.7.1-.25.2.05M1.05-.4v.25L1 .05.95.9H.4L.3.8-.1-.45l-.2-.3-.1-.2H.9l.1.1.15.1-.1.35m-2.8-.55.05.15.1.75-.95.1h-.2V-.2l-.05-.25-.1-.45.05-.1H-2l.25.05m-1.6.35.15.55-.15.05-.25.05h-.35L-4.2-.6h.05l.6-.2h.1l.1.2m-2.8.55-.2.75-.2-.05-.65-.1q.4-.25.5-.7h.05l.5.1m9.4-.8.7.8.15.3-.25.05-.5.15L3 .5l-.2.05v-.3l-.3-1 .05-.05.3-.15.25-.15.15.25m-11.8-.1.05-.1.1.1.1.2.25.15.35.15-.25.25-.55.8-.35-.15-.9-.25-.1-.05-.15-.1h.1l.45-.3.6-.5.3-.2M5.95 4.4l.2.55v.3l.15.5-.2-.05h-.45l-.3.05-.15-.05-.5-1-.75-1.1h.45l1.35.45.15.1.05.25m3.9 1.5.2 1.25H9.3l-.3.2q-.25-.1-.55-.9l-.2-.2V6.2h.1l.15-.05 1.35-.25" transform="translate(10 7.3)" id="e" fill="#f7d6aa" fill-rule="evenodd"/><path d="m.15-9.4 2-2.5 1.95-2.05q.5-.25-.7 3.1-1.2 4.4-.85 4.15L3-7.05l2.35-1.9-.6 1.9-.6 1.7-.2 1.55q-.05.25.35.75l1 1.2L6.9-.4 8.5.75l.25-1.2.15-1.9Q9.95-1.5 11.05.7l.65 2.6.1-.45.5-1.15.65 2.2.6 2.15 1.05 5.35.05 1.25.2 1.2q-.25.8-.85.4-.35-.2-.9-2.05l-.5-1.15-1-1.9-1.55-2.25L7.9 4.45l-2.8-2.8Q3.45.4 1.7-.1l-3.35-.15-1.4.6L-5.2 1.4l-2.3 1.4-1.65 1.5q-1.05.95-1.75 2.4l-.75 2-.25.6-.25.7.05.05-1.1 1.6-.55 1-.3.4-.1.3-.5-1.05q.1-4.3-.45-5.9.3-.1.65-.35l1.85-1.5 1-1.55q-.05-.3-.55-.9-.45-.7-.8-.85l.8-.1 1.55-.05 2.2-.7 2.1-1.1q.75-.6 1.55-1.9l.85-1.15.9-1.15 1.5-2.25.9-1.05.75-1.2" fill="#2e0000" fill-rule="evenodd" transform="translate(15.1 13.95)" id="b"/><path d="M3.45-13.1Q2.2-11.2 1.6-5.05l3-3Q2.55-5.25 3.35-3.1 8.2 1.45 8.7 1.4q.5-.05.5-2.45 1.25.7 2.3 6.1L12 3l2.15 9.85L10 7.55v4.25q0-.45-5.35-9.5l-.5 2.95Q4 4.7 2.05 1.45l-.3 1.65-2.65.25-.6-2.05-.95 1.95-2.5.2-4.65 5.5 2-5-2.7 4q-.65 1.75-.25 5.2l-1.55-4q-.3-.1-1.2 1.35l-.85 1.3.1-5q.5-.05 2-2 1.5-1.85 1.45-2.3l-1.05-1.05q2.85.25 6.35-2.5.45-.35 8.75-12.05" fill="#e08605" fill-rule="evenodd" transform="translate(14.15 13.1)" id="c"/><use height="28.35" width="29.95" xlink:href="#b" id="f"/><use height="26.25" width="28.3" xlink:href="#c" id="g"/><use height="21.4" width="27.4" xlink:href="#d" id="h"/><use height="14.65" width="20.05" xlink:href="#e" id="i"/><g id="a" transform="translate(15.1 13.95)"><use height="28.35" transform="translate(-15.1 -13.95)" width="29.95" xlink:href="#f"/><use height="26.25" transform="translate(-14.05 -12.55)" width="28.3" xlink:href="#g"/><use height="21.4" transform="translate(-13.65 -9.05)" width="27.4" xlink:href="#h"/><use height="14.65" transform="translate(-6.75 -5.05)" width="20.05" xlink:href="#i"/></g></defs></svg>

<?xml version="1.0" encoding="UTF-8" standalone="no"?>
<svg xmlns:xlink="http://www.w3.org/1999/xlink" height="92.9px" width="100.7px" xmlns="http://www.w3.org/2000/svg">
  <g transform="matrix(1.0, 0.0, 0.0, 1.0, 38.65, 49.75)">
    <use height="28.35" transform="matrix(1.0, 0.0, 0.0, 1.0, -15.1, -13.05)" width="29.95" xlink:href="#sprite0"/>
  </g>
  <defs>
    <g id="sprite0" transform="matrix(1.0, 0.0, 0.0, 1.0, 15.1, 13.95)">
      <use height="28.35" transform="matrix(1.0, 0.0, 0.0, 1.0, -15.1, -13.95)" width="29.95" xlink:href="#sprite1"/>
      <use height="26.25" transform="matrix(1.0, 0.0, 0.0, 1.0, -14.05, -12.55)" width="28.3" xlink:href="#sprite2"/>
      <use height="21.4" transform="matrix(1.0, 0.0, 0.0, 1.0, -13.65, -9.05)" width="27.4" xlink:href="#sprite3"/>
      <use height="14.65" transform="matrix(1.0, 0.0, 0.0, 1.0, -6.75, -5.05)" width="20.05" xlink:href="#sprite4"/>
    </g>
    <g id="sprite1" transform="matrix(1.0, 0.0, 0.0, 1.0, 15.1, 13.95)">
      <use height="28.35" transform="matrix(1.0, 0.0, 0.0, 1.0, -15.1, -13.95)" width="29.95" xlink:href="#shape0"/>
    </g>
    <g id="shape0" transform="matrix(1.0, 0.0, 0.0, 1.0, 15.1, 13.95)">
      <path d="M0.15 -9.4 L2.15 -11.9 4.1 -13.95 Q4.6 -14.2 3.4 -10.85 2.2 -6.45 2.55 -6.7 L3.0 -7.05 5.35 -8.95 4.75 -7.05 4.15 -5.35 3.95 -3.8 Q3.9 -3.55 4.3 -3.05 L5.3 -1.85 6.9 -0.4 8.5 0.75 8.75 -0.45 8.9 -2.35 Q9.95 -1.5 11.05 0.7 L11.7 3.3 11.8 2.85 12.3 1.7 12.95 3.9 13.55 6.05 14.6 11.4 14.65 12.65 14.85 13.85 Q14.6 14.65 14.0 14.25 13.65 14.05 13.1 12.2 L12.6 11.05 11.6 9.15 10.05 6.9 7.9 4.45 5.1 1.65 Q3.45 0.4 1.7 -0.1 L-1.65 -0.25 -3.05 0.35 -5.2 1.4 -7.5 2.8 -9.15 4.3 Q-10.2 5.25 -10.9 6.7 L-11.65 8.7 -11.9 9.3 -12.15 10.0 -12.1 10.05 -13.2 11.65 -13.75 12.65 -14.05 13.05 -14.15 13.35 -14.65 12.3 Q-14.55 8.0 -15.1 6.4 -14.8 6.3 -14.45 6.05 L-12.6 4.55 -11.6 3.0 Q-11.65 2.7 -12.15 2.1 -12.6 1.4 -12.95 1.25 L-12.15 1.15 -10.6 1.1 -8.4 0.4 -6.3 -0.7 Q-5.55 -1.3 -4.75 -2.6 L-3.9 -3.75 -3.0 -4.9 -1.5 -7.15 -0.6 -8.2 0.15 -9.4" fill="#2e0000" fill-rule="evenodd" stroke="none"/>
    </g>
    <g id="sprite2" transform="matrix(1.0, 0.0, 0.0, 1.0, 14.15, 13.1)">
      <use height="26.25" transform="matrix(1.0, 0.0, 0.0, 1.0, -14.15, -13.1)" width="28.3" xlink:href="#shape1"/>
    </g>
    <g id="shape1" transform="matrix(1.0, 0.0, 0.0, 1.0, 14.15, 13.1)">
      <path d="M3.45 -13.1 Q2.2 -11.2 1.6 -5.05 L4.6 -8.05 Q2.55 -5.25 3.35 -3.1 8.2 1.45 8.7 1.4 9.2 1.35 9.2 -1.05 10.45 -0.35 11.5 5.05 L12.0 3.0 14.15 12.85 10.0 7.55 10.0 11.8 Q10.0 11.35 4.65 2.3 L4.15 5.25 Q4.0 4.7 2.05 1.45 L1.75 3.1 -0.9 3.35 -1.5 1.3 -2.45 3.25 -4.95 3.45 -9.6 8.95 -7.6 3.95 -10.3 7.95 Q-10.95 9.7 -10.55 13.15 L-12.1 9.15 Q-12.4 9.05 -13.3 10.5 L-14.15 11.8 -14.05 6.8 Q-13.55 6.75 -12.05 4.8 -10.55 2.95 -10.6 2.5 L-11.65 1.45 Q-8.8 1.7 -5.3 -1.05 -4.85 -1.4 3.45 -13.1" fill="#e08605" fill-rule="evenodd" stroke="none"/>
    </g>
    <g id="sprite3" transform="matrix(1.0, 0.0, 0.0, 1.0, 13.7, 10.7)">
      <use height="21.4" transform="matrix(1.0, 0.0, 0.0, 1.0, -13.7, -10.7)" width="27.4" xlink:href="#shape2"/>
    </g>
    <g id="shape2" transform="matrix(1.0, 0.0, 0.0, 1.0, 13.7, 10.7)">
      <path d="M1.4 -10.7 L-0.85 -5.5 -1.35 -3.9 -1.7 -3.3 -2.8 -3.1 Q-3.7 -2.9 -3.75 -2.6 L-3.75 -2.7 -3.5 -3.7 -2.75 -4.25 -2.15 -5.2 -1.6 -6.05 -0.1 -8.2 1.05 -10.35 1.4 -10.7" fill="#f7ba61" fill-rule="evenodd" stroke="none"/>
      <path d="M1.25 -9.65 L0.95 -6.05 0.95 -4.0 1.05 -3.55 0.2 -3.45 -0.45 -3.15 -0.55 -3.7 -0.5 -5.1 -0.15 -6.45 1.05 -9.2 1.25 -9.65" fill="#f7ba61" fill-rule="evenodd" stroke="none"/>
      <path d="M2.15 -3.5 Q1.9 -3.85 1.9 -4.8 2.15 -6.2 3.15 -7.5 2.25 -5.55 2.5 -4.55 2.55 -4.3 2.9 -3.95 L3.1 -3.3 2.15 -3.5" fill="#f7ba61" fill-rule="evenodd" stroke="none"/>
      <path d="M9.75 -0.45 L9.7 -0.4 9.85 -0.15 10.05 0.3 10.3 0.85 10.4 1.45 10.75 3.35 9.5 2.15 Q10.05 0.95 9.9 0.25 L9.6 -0.35 9.75 -0.45" fill="#f7ba61" fill-rule="evenodd" stroke="none"/>
      <path d="M12.0 3.9 L12.25 3.45 12.5 4.8 11.85 4.2 11.85 4.15 12.0 3.9" fill="#f7ba61" fill-rule="evenodd" stroke="none"/>
      <path d="M-9.4 1.2 L-9.9 1.0 -10.55 0.75 -10.35 0.65 -9.45 0.4 -8.85 0.2 -9.4 1.25 -9.4 1.2" fill="#f7ba61" fill-rule="evenodd" stroke="none"/>
      <path d="M-6.7 2.25 L-6.7 2.4 Q-6.65 2.2 -6.25 2.1 L-5.5 2.0 -5.95 2.7 -7.5 4.9 -7.1 3.75 -6.7 2.25" fill="#f7ba61" fill-rule="evenodd" stroke="none"/>
      <path d="M-1.1 -0.45 L-1.15 -0.5 -1.25 -1.05 -0.25 -0.2 0.2 0.95 0.35 1.65 -0.45 1.75 -1.1 -0.45" fill="#f7ba61" fill-rule="evenodd" stroke="none"/>
      <path d="M4.15 -1.15 Q4.35 -1.05 4.35 0.1 L4.0 2.9 3.9 3.15 3.65 2.0 Q3.5 0.35 2.8 -0.35 L2.15 -1.05 3.5 -1.1 4.15 -1.15" fill="#f7ba61" fill-rule="evenodd" stroke="none"/>
      <path d="M8.45 3.85 L8.9 4.1 9.5 6.75 9.8 9.45 8.45 6.2 7.3 4.4 6.1 2.8 5.45 1.9 Q6.6 2.35 8.45 3.85" fill="#f7ba61" fill-rule="evenodd" stroke="none"/>
      <path d="M-4.5 1.95 L-4.2 1.5 -3.65 0.8 Q-2.95 -0.25 -2.5 -0.4 L-3.05 0.85 -3.15 1.55 -3.1 1.8 -3.55 1.8 -4.4 1.9 -4.5 1.95" fill="#f7ba61" fill-rule="evenodd" stroke="none"/>
      <path d="M-12.6 5.35 L-13.45 8.15 -13.6 8.6 -13.55 7.7 -13.65 6.45 Q-13.75 6.0 -13.45 5.9 L-12.6 5.35" fill="#f7ba61" fill-rule="evenodd" stroke="none"/>
      <path d="M-11.4 6.75 L-10.35 5.6 Q-11.15 7.3 -11.15 7.9 -11.25 8.9 -11.0 9.3 L-11.05 9.25 -11.2 9.05 -11.45 8.25 -11.85 7.35 -11.95 7.2 -11.4 6.75" fill="#f7ba61" fill-rule="evenodd" stroke="none"/>
      <path d="M11.75 6.3 L12.85 5.95 13.35 8.15 13.7 10.7 Q12.5 7.65 11.4 6.8 L10.95 6.5 11.75 6.3" fill="#f7ba61" fill-rule="evenodd" stroke="none"/>
      <path d="M-7.65 1.7 L-6.15 0.3 -3.55 -1.75 Q-3.0 -1.45 -5.45 1.4 -5.6 1.6 -6.1 1.6 L-7.65 1.7" fill="#f7ba61" fill-rule="evenodd" stroke="none"/>
      <path d="M5.05 -2.1 L4.95 -2.25 Q5.45 -1.95 6.35 -0.55 L7.75 1.7 8.0 2.05 6.3 1.5 Q6.1 1.4 5.85 0.4 L5.45 -1.2 5.05 -2.1" fill="#f7ba61" fill-rule="evenodd" stroke="none"/>
      <path d="M-8.45 1.85 L-11.25 5.35 -11.75 5.3 -11.7 5.2 Q-11.45 4.6 -9.4 2.7 L-8.7 2.05 -8.45 1.85" fill="#f7ba61" fill-rule="evenodd" stroke="none"/>
      <path d="M1.25 -0.85 L1.35 -0.65 1.4 -0.45 1.65 0.55 1.6 1.35 1.5 1.7 0.9 1.7 0.6 1.15 0.4 0.25 0.3 -0.7 0.0 -1.0 -0.35 -1.2 -0.1 -1.2 1.15 -0.95 1.25 -0.85" fill="#f7ba61" fill-rule="evenodd" stroke="none"/>
    </g>
    <g id="sprite4" transform="matrix(1.0, 0.0, 0.0, 1.0, 10.0, 7.3)">
      <use height="14.65" transform="matrix(1.0, 0.0, 0.0, 1.0, -10.0, -7.3)" width="20.05" xlink:href="#shape3"/>
    </g>
    <g id="shape3" transform="matrix(1.0, 0.0, 0.0, 1.0, 10.0, 7.3)">
      <path d="M-0.8 -5.45 L-0.65 -4.7 -0.3 -4.55 -0.8 -4.55 -1.05 -4.6 -1.25 -4.6 -1.3 -5.0 -1.3 -5.6 -1.05 -5.5 -0.8 -5.45" fill="#f7d6aa" fill-rule="evenodd" stroke="none"/>
      <path d="M-2.85 -6.35 L-2.3 -6.1 -2.3 -5.45 -2.25 -5.05 -2.3 -4.65 -3.2 -4.85 -3.75 -5.1 -3.75 -5.7 -3.7 -6.1 -3.55 -6.6 -3.55 -6.8 -3.45 -6.75 -2.85 -6.35" fill="#f7d6aa" fill-rule="evenodd" stroke="none"/>
      <path d="M-4.45 -7.25 L-3.9 -6.9 -4.3 -5.5 -4.35 -5.25 -4.4 -5.15 -4.8 -5.15 -5.45 -5.25 -5.65 -5.35 -4.75 -7.05 -4.65 -7.3 -4.45 -7.25" fill="#f7d6aa" fill-rule="evenodd" stroke="none"/>
      <path d="M1.05 -0.4 L1.05 -0.15 1.0 0.05 0.95 0.9 0.4 0.9 0.3 0.8 -0.1 -0.45 -0.3 -0.75 -0.4 -0.95 0.7 -0.95 0.9 -0.95 1.0 -0.85 1.15 -0.75 1.05 -0.4" fill="#f7d6aa" fill-rule="evenodd" stroke="none"/>
      <path d="M-1.75 -0.95 L-1.7 -0.8 -1.6 -0.05 -2.55 0.05 -2.75 0.05 -2.75 -0.2 -2.8 -0.45 -2.9 -0.9 -2.85 -1.0 -2.0 -1.0 -1.75 -0.95" fill="#f7d6aa" fill-rule="evenodd" stroke="none"/>
      <path d="M-3.35 -0.6 L-3.2 -0.05 -3.35 0.0 -3.6 0.05 -3.95 0.05 -4.2 -0.6 -4.15 -0.6 -3.55 -0.8 -3.45 -0.8 -3.35 -0.6" fill="#f7d6aa" fill-rule="evenodd" stroke="none"/>
      <path d="M-6.15 -0.05 L-6.35 0.7 -6.55 0.65 -7.2 0.55 Q-6.8 0.3 -6.7 -0.15 L-6.65 -0.15 -6.15 -0.05" fill="#f7d6aa" fill-rule="evenodd" stroke="none"/>
      <path d="M3.25 -0.85 L3.95 -0.05 4.1 0.25 3.85 0.3 3.35 0.45 3.0 0.5 2.8 0.55 2.8 0.25 2.5 -0.75 2.55 -0.8 2.85 -0.95 3.1 -1.1 3.25 -0.85" fill="#f7d6aa" fill-rule="evenodd" stroke="none"/>
      <path d="M-8.55 -0.95 L-8.5 -1.05 -8.4 -0.95 -8.3 -0.75 -8.05 -0.6 -7.7 -0.45 -7.95 -0.2 -8.5 0.6 -8.85 0.45 -9.75 0.2 -9.85 0.15 -10.0 0.05 -9.9 0.05 -9.45 -0.25 -8.85 -0.75 -8.55 -0.95" fill="#f7d6aa" fill-rule="evenodd" stroke="none"/>
      <path d="M5.95 4.4 L6.15 4.95 6.15 5.25 6.3 5.75 6.1 5.7 5.65 5.7 5.35 5.75 5.2 5.7 4.7 4.7 3.95 3.6 4.4 3.6 5.75 4.05 5.9 4.15 5.95 4.4" fill="#f7d6aa" fill-rule="evenodd" stroke="none"/>
      <path d="M9.85 5.9 L10.05 7.15 9.3 7.15 9.0 7.35 Q8.75 7.25 8.45 6.45 L8.25 6.25 8.25 6.2 8.35 6.2 8.5 6.15 9.85 5.9" fill="#f7d6aa" fill-rule="evenodd" stroke="none"/>
    </g>
  </defs>
</svg>
